X: 320
T:Ile fantazies de Joskin
N: Derived from Jos2715-Ile_fantazies_de_Joskin.krn
C: Josquin des Prez
%%abc-version 2.0
%%abcx-abcm2ps-target-version 5.9.1 (29 Sep 2008)
%%abc-creator hum2abc beta
%%abcx-conversion-date 2019/02/12 16:15:54
%%abc-edited-by Jesse Rodin
%%abc-edited-by Jesse Rodin; Victoria Chang 2011/05/30/
%%abcx-initial-encoding-date 2011/05/30/
%%humdrum-veritas 2477974413
%%humdrum-veritas-data 3230879033
%%linebreak <none>
%%barnumbers 0
L: 1/4
M: 2/1
Q: 1/2=120
V: 1 clef=treble
V: 2 clef=treble-8
V: 3 clef=treble-8
K: F
[V:1] A4A3B | 
[V:2] z8 | 
[V:3] z8 | 
[V:1] cdc4BA | 
[V:2] z8 | 
[V:3] A4A3B | 
[V:1] G4z4 | 
[V:2] e4e3f | 
[V:3] cdc4BA | 
[V:1] B8 | 
[V:2] gag4fe | 
[V:3] G8 | 
[V:1] B4B4 | 
[V:2] d4z4 | 
[V:3] z2G3ABc | 
[V:1] A6GF | 
[V:2] f6ed | 
[V:3] d2D2d4 | 
[V:1] G2F4ED | 
[V:2] e2d4cB | 
[V:3] c2d2B4 | 
[V:1] E2D4CB, | 
[V:2] c2B4AG | 
[V:3] A2B2G4 | 
[V:1] C2B,4A,G, | 
[V:2] A2G2d4 | 
[V:3] z2G4FE | 
[V:1] A,3G,G4- | 
[V:2] c4B4 | 
[V:3] F4G4 | 
[V:1] G4^F4 | 
[V:2] A8 | 
[V:3] D8 | 
[V:1] G8- | 
[V:2] G8 | 
[V:3] z4d4 | 
[V:1] G8 | 
[V:2] z4G4- | 
[V:3] _ed_ed_e2d2- | 
[V:1] z4D4 | 
[V:2] G4G4- | 
[V:3] dcBAB2G2 | 
[V:1] D4D4- | 
[V:2] G2FEF4 | 
[V:3] B4A4 | 
[V:1] D2CB,C4 | 
[V:2] G4z4 | 
[V:3] G2B4A2 | 
[V:1] D4z4 | 
[V:2] G4G4- | 
[V:3] B4z4 | 
[V:1] D4D4 | 
[V:2] G4F4 | 
[V:3] z8 | 
[V:1] D4C4 | 
[V:2] G2B4A2 | 
[V:3] z8 | 
[V:1] D2F4E2 | 
[V:2] B6c2 | 
[V:3] f3ed2c2 | 
[V:1] F3EDCB,2 | 
[V:2] d2f3edc | 
[V:3] B4f3e | 
[V:1] F3GABc2- | 
[V:2] B2f4e2 | 
[V:3] dcB3AGF | 
[V:1] c2B4A2 | 
[V:2] dcdBc4 | 
[V:3] G4F4 | 
[V:1] B8 | 
[V:2] B8- | 
[V:3] f6g2- | 
[V:1] z4B4 | 
[V:2] B8 | 
[V:3] g2fed2g2- | 
[V:1] A4A4 | 
[V:2] z8 | 
[V:3] g2fef3e | 
[V:1] G4c4 | 
[V:2] e8 | 
[V:3] c8 | 
[V:1] B2A4GF | 
[V:2] d4d4 | 
[V:3] z4B4 | 
[V:1] E4z4 | 
[V:2] c3B/A/G4- | 
[V:3] c2A2B4- | 
[V:1] D4D4 | 
[V:2] G2F2G2F2 | 
[V:3] B2A2B2A2 | 
[V:1] D4F4- | 
[V:2] G2B4A2 | 
[V:3] B4c4 | 
[V:1] F2GAB2A2- | 
[V:2] B3cdef2- | 
[V:3] d8 | 
[V:1] A2GFE2D2- | 
[V:2] f2edc2B2- | 
[V:3] DEFGA2B2 | 
[V:1] D2CB,A,2G,2 | 
[V:2] B2AGF2G2- | 
[V:3] G3FD2E2 | 
[V:1] A,4z4 | 
[V:2] G2FEF4 | 
[V:3] D8 | 
[V:1] D4F4- | 
[V:2] z8 | 
[V:3] B6AG | 
[V:1] F4G4 | 
[V:2] z8 | 
[V:3] A4G4 | 
[V:1] B6AG | 
[V:2] G4B4- | 
[V:3] z2d4cB | 
[V:1] B4A4 | 
[V:2] B4c4 | 
[V:3] G4F4 | 
[V:1] (3G2A2B2c4- | 
[V:2] _e6dc | 
[V:3] c8 | 
[V:1] c4B2A2- | 
[V:2] _e4d4 | 
[V:3] C4z2F2- | 
[V:1] A2GFG2A2 | 
[V:2] c6BA | 
[V:3] F2EDE2F2 | 
[V:1] D4z2A2- | 
[V:2] B2AGF4 | 
[V:3] G4A4 | 
[V:1] AGAFG2F2 | 
[V:2] z2f2e2f2 | 
[V:3] D4z2d2- | 
[V:1] z2B3ABG | 
[V:2] d4z2g2 | 
[V:3] dcBAG4 | 
[V:1] A2G2z2c2- | 
[V:2] f2g2e4 | 
[V:3] z2c3BAG | 
[V:1] cBcAB2A2 | 
[V:2] f4d4 | 
[V:3] F4G2F2 | 
[V:1] cBAGF2E2- | 
[V:2] e4d2c2- | 
[V:3] E2C2D2E2 | 
[V:1] E2G4^F2 | 
[V:2] c2B2A4 | 
[V:3] C2G2D4 | 
[V:1] G8 |]  
[V:2] G8 |]  
[V:3] d8 |]  



